!!!!SEGMENT: pl-kc--40102-iii-1-saf--002-016_zielenski-mikolaj--communiones-totius-anni-in-festo-cathedrae-s-petri-tu-es-petrus.krn
!!!cenid: 16xx:1547
!!!COM: Zieleński, Mikołaj
!!!COM-rismid: pe30013481
!!!CDT:
!!!CNT: Polish
!!!GTL: Communiones totius anni
!!!OTL: In festo Cathedrae S. Petri/Tu es Petrus
!!!OMV: 016
!!!PDT: 1611
!!!AGN:
!!!SMS-siglum: PL-Kc
!!!SMS-shelfmark: 40102 III/1 Saf.
!!!SMS-shelfwork: 002-016 G
!!!SMS-variant:
!!!SMS-altvar:
!!!NIFC-rismid: 990069887
!!!URL-scan: https://cyfrowe.mnk.pl/dlibra/publication/24235/edition/23926/content?ref=desc
!!!ONB-nifc: UWAGA: str. 52-53. Uwaga: W xml metrum 2/1 do źródłowego C| i odpowiednio 3/1 do 3/2
!!!key: d:dor
**kern	**kern	**kern	**kern
*group1	*group1	*group1	*group1
*part4	*part3	*part2	*part1
*staff4	*staff3	*staff2	*staff1
*I""Organo	*I	*I	*
*Iorgan	*Iorgan	*Iorgan	*Iorgan
*ICklav	*ICklav	*ICklav	*ICklav
*clefF4	*clefC4	*clefC3	*clefC1
*k[]	*k[]	*k[]	*k[]
*G:	*G:	*G:	*G:
*M2/1	*M2/1	*M2/1	*M2/1
*met(C|)	*met(C|)	*met(C|)	*met(C|)
=1	=1	=1	=1
!LO:TX:t=P:problem:all/middle:global	!LO:TX:t=P:problem:all/middle:global	!LO:TX:t=P:problem:all/middle:global	!LO:TX:t=P:problem:all/middle:global
!LO:TX:t=P:problem:all\middle:global	!LO:TX:t=P:problem:all\middle:global	!LO:TX:t=P:problem:all\middle:global	!LO:TX:t=P:problem:all\middle:global
!	!	!LO:TX:a:t=Tu es Petrus.	!LO:TX:a:t=In feſto Cathedrae S.Petri.   Incipiunt Duae voces  Cantds Baſſo.
1r	0d	00r	00r
0G	.	.	.
=2-	=2-	=2-	=2-
.	1e	.	.
1A	1c#X	.	.
=3	=3	=3	=3
1F#X	1d	1r	00r
1G	2r	0g	.
.	2B\	.	.
=4-	=4-	=4-	=4-
2r	2.e\	.	.
2C/	.	.	.
.	4d\	.	.
2.Fny\	4c\	1a	.
.	4B\	.	.
.	4A/	.	.
4E\	4G/	.	.
=5	=5	=5	=5
2D/	2A/	1f#X	0r
2D/	4d\	.	.
.	4c\	.	.
2.E\	4B\	1g	.
.	4G/	.	.
.	1c\	.	.
4F\	.	.	.
=6-	=6-	=6-	=6-
1G	.	2r	0dd
.	4B\	2d\	.
.	4A/	.	.
1GG	2B\	2.g\	.
.	2G/	.	.
.	.	4fny\	.
=7	=7	=7	=7
0r	2.c\	4e\	1ee
.	.	4d\	.
.	.	1e	.
.	4B\	.	.
.	2.A/	.	1cc#X
.	.	2.a\	.
.	4G/	.	.
=8-	=8-	=8-	=8-
1r	2F#X/	.	1dd
.	.	4A/	.
.	1G	1B	.
[>1D	.	.	2r
.	4F#X/	4A/	2a\
.	4E/	4G/	.
=9	=9	=9	=9
1D]	2F#X/	2A/	2.dd\
.	2F#/	2A/	.
.	.	.	4cc\
1E	2.G/	4G/	2b\
.	.	4A/	.
.	.	4B/	2b\
.	4G/	4G/	.
=10-	=10-	=10-	=10-
1C#X	2E/	2A/	1ee
.	4A/	2e\	.
.	4G/	.	.
1D	4F/	1f	2a\
.	4E/	.	.
.	4F/	.	[y2dd\
.	4G/	.	.
=11	=11	=11	=11
!	!	!	!LO:N:xstem:cue
2r	2.A/	1e	4dd\]
.	.	.	8cc#X\
.	.	.	8b\
2AA/	.	.	2cc#\
.	4G/	.	.
2.D/	4F#X/	2d\	1dd
.	4E/	.	.
.	2F#/	2A/	.
4C/	.	.	.
=12-	=12-	=12-	=12-
2BB/	1G	2d\	2r
1C	.	1e	2g/
.	1.A	.	2.ccny\
2AA/	.	2e\	.
.	.	.	4b\
=13	=13	=13	=13
1D	.	2f#X\	4a\
.	.	.	4g/
.	1d	2f#\	2a\
2GG/	.	2g\	1b
2GG/	2.G/	2d\	.
=14-	=14-	=14-	=14-
2.C/	.	2e\	2g/
.	4F/	.	.
.	4E/	1A	2.cc\
4BB/	4D/	.	.
1AA	2E/	.	.
.	.	.	4b\
.	2c\	2e\	2.a\
=15	=15	=15	=15
2D/	2.B\	0d	.
.	.	.	8g#X/
!	!	!	!LO:SIC:v:s:t=8f#/
.	.	.	8f/
2GG/	.	.	2.gny/
.	8A/	.	.
.	8G/	.	.
1D	1A	.	.
.	.	.	8f#X/
.	.	.	8e/
!	!	!	!LO:SIC:v:s:t=2f#/
.	.	.	2fny/
=16-	=16-	=16-	=16-
2GG/	2G/	2.d\	1g
2G\	2B\	.	.
.	.	4e\	.
1A	1c	2f\	1r
.	.	2.e\	.
=17	=17	=17	=17
2F\	2A/	.	0r
.	.	4d\	.
4E\	4G/	2.d\	.
4D/	4F/	.	.
1E	1G	.	.
.	.	8c/	.
.	.	8B/	.
.	.	2c/	.
=18-	=18-	=18-	=18-
0D	2F#X/	2d\	0a
.	2.G/	4c/	.
.	.	4B/	.
.	.	2A/	.
.	8F#X/	.	.
.	8E/	.	.
.	2F#/	[y2d\	.
=19	=19	=19	=19
!	!	!LO:N:xstem:cue	!
00r	2G/	4d\]	1b
.	.	4d\	.
.	2G/	4g\	.
.	.	4f\	.
.	2.c\	4e\	1g
.	.	4d\	.
.	.	2e\	.
.	4B\	.	.
=20-	=20-	=20-	=20-
.	4A/	2c/	1a
.	4G/	.	.
.	4F/	2.f\	.
.	4E/	.	.
.	2D/	.	2r
.	.	4e\	.
.	[<2G/	4d\	2g/
.	.	4c/	.
=21	=21	=21	=21
1r	4G/]	2B/	2.dd\
.	8F#X/	.	.
.	8E/	.	.
.	2F#/	2A/	.
.	.	.	4cc\
2r	1.G	1d	4b\
.	.	.	4a\
2GG/	.	.	2b\
=22-	=22-	=22-	=22-
2.C/	.	1.e	2g/
.	2.A/	.	2.cc\
4BB/	.	.	.
1AA	.	.	.
.	4B\	.	4b\
.	4c\	2e\	4a\
.	4B\	.	4g/
!LO:SIC:v:t=custos D	!LO:SIC:v:t=custos A	!LO:SIC:v:t=custos f	!LO:SIC:v:t=custos a
!LO:LB:g=original	!LO:LB:g=original	!LO:LB:g=original	!LO:LB:g=original
=23	=23	=23	=23
2D/	2A/	2f#X\	4a\
.	.	.	4d/
*	*	*	*lig
*	*	*	*col
2BB/	1G	4g\	1dd
.	.	4f#\	.
1C	.	4e\	.
.	.	4d\	.
.	2G/	4e\	2.cc\
.	.	4f#\	.
*	*	*	*Xlig
*	*	*	*Xcol
=24-	=24-	=24-	=24-
1GG	1d	2.g\	.
.	.	.	8b\
.	.	.	8a\
.	.	.	2b\
.	.	4fny\	.
2C/	2c\	1e	1cc
[y2c\	[y2e\	.	.
=25	=25	=25	=25
!LO:N:xstem:cue	!LO:N:xstem:cue	!	!
4c\]	4e\]	2r	1r
4c\	4e\	.	.
2B\	2d\	2.g\	.
1A	1c	.	2r
.	.	4g\	.
.	.	2f\	2.cc\
=26-	=26-	=26-	=26-
1G	2r	2e\	.
.	.	.	4cc\
.	2.G/	2d\	2b\
1r	.	2c\	(<1a
.	4G/	.	.
.	2F/	2d\	.
=27	=27	=27	=27
0r	2E/	1e	2.g/)
.	2C/	.	.
.	.	.	4a\
.	2.G/	2d\	4b\
.	.	.	4a\
.	.	1g\	4b\
.	4A/	.	4cc\
=28-	=28-	=28-	=28-
2r	2B\	.	1dd
2.D/	4A/	4f#X\	.
.	4G/	4e\	.
.	2A/	4f#X\	1a
4D/	.	4g\	.
2C/	2E/	2a\	.
=29	=29	=29	=29
2BB/	2F#X/	2d\	2r
4AA/	2.G/	2g\	2.dd\
4GG/	.	.	.
1AA	.	2e\	.
.	8F#X/	.	4dd\
.	8E/	.	.
.	2F#/	2A/	2cc\
=30-	=30-	=30-	=30-
2GG/	2G/	1d	2b\
2.G\	2B\	.	4a\
.	.	.	4g\
.	2A/	2c/	4a\
4G\	.	.	4b\
2F\	2A/	2A/	4cc\
.	.	.	4a\
=31	=31	=31	=31
2E\	2G/	2.e\	4b\
.	.	.	4b\
4C/	1A	.	2.ee\
4C/	.	4e\	.
2.D/	.	2.f\	.
.	.	.	4ee\
.	2A/	.	2dd\
4D/	.	8g\	.
.	.	8f\	.
=32-	=32-	=32-	=32-
1.AA	2A/	2e\	4cc#X\
.	.	.	4a\
.	2f\	2a\	2.dd\
.	1e	2.a\	.
.	.	.	8cc#X\
.	.	.	8b\
2AA/	.	.	2cc#\
.	.	4g\	.
=33	=33	=33	=33
2D/	2d\	2f#X\	0dd
2.G\	2.B\	2g\	.
.	.	2.d\	.
4G\	4B\	.	.
2F\	2A/	.	.
.	.	4d\	.
=34-	=34-	=34-	=34-
2E\	2F/	4c/	1r
.	.	4B/	.
4D/	2.c\	2e\	.
4C/	.	.	.
1D	.	2fny\	2r
.	8B\	.	.
.	8A\	.	.
.	2B\	2d\	[<2ff\
=35	=35	=35	=35
1C	4c\	1g	4ff\]
.	8B\	.	4ff\
.	8A\	.	.
.	4G/	.	2ee\
.	4A/	.	.
2r	4B\	2d\	1dd
.	4A/	.	.
2.GG/	4B\	1g\	.
.	4c\	.	.
=36-	=36-	=36-	=36-
.	2d\	.	2dd\
4GG/	.	.	.
2AA/	1A	2e\	2cc\
4BB/	.	[<1d	2.b\
4GG/	.	.	.
4BB/	2G/	.	.
4C/	.	.	4b\
=37	=37	=37	=37
2D/	2F#X/	2d\]	4a\
.	.	.	4a\
4r	2.A/	2.e\	2.cc\
4AA/	.	.	.
2.C/	.	.	.
.	4G/	4e\	4cc\
.	2c\	2e\	2g/
4C/	.	.	.
=38-	=38-	=38-	=38-
2GG/	2.B\	2.d\	4r
.	.	.	4b\
4r	.	.	2.dd\
4GG/	8A/	4d\	.
.	8G/	.	.
2.D/	2A/	2.f\	.
.	.	.	4dd\
.	2d\	.	2a\
4D/	.	4f\	.
=39	=39	=39	=39
2AA/	2.c\	2.e\	4r
.	.	.	4cc\
4r	.	.	2.ee\
4C/	4G/	8d\	.
.	.	8c\	.
2.G\	2.B\	2d\	.
.	.	.	4ee\
.	.	2g\	2.dd\
!LO:TX:b:t=Partitura Nicolai Zielenski.	!	!	!
4GG/	8A/	.	.
.	8G/	.	.
=40-	=40-	=40-	=40-
2D/	2.A/	2.f\	.
.	.	.	4a\
4r	.	.	2.cc\
4AA/	4A/	8e\	.
.	.	8d\	.
2C/	2.G/	2e\	.
.	.	.	4g/
2GG/	.	[y2d\	[y2b\
.	8F/	.	.
.	8E/	.	.
=41	=41	=41	=41
!	!	!LO:N:xstem:cue	!LO:N:xstem:cue
2.BB/	2D/	4d\]	4b\]
.	.	4c/	4a\
.	2.d\	2B/	2g/
8AA/	.	.	.
8GG/	.	.	.
1D	.	2A/	2f#X/
.	4c\	.	.
.	2B\	2d\	2.g/
=42-	=42-	=42-	=42-
1DD	1A	2.d\	.
.	.	.	8f#X/
.	.	.	8e/
.	.	.	2f#/
.	.	4c/	.
!LO:TX:b:t=G 2	!	!	!
2GG/	2G/	1B	1g
[y2G\	[y2B\	.	.
!LO:SIC:v:t=custos G	!LO:SIC:v:t=custos B	!	!LO:SIC:v:t=custos dd
!LO:PB:g=original	!LO:PB:g=original	!LO:PB:g=original	!LO:PB:g=original
=43	=43	=43	=43
!LO:N:xstem:cue	!LO:N:xstem:cue	!	!
4G\]	4B\]	2.d\	2r
4G\	4B\	.	.
2F\	2A/	.	2.dd\
.	.	4d\	.
2.E\	2.G/	2G/	.
.	.	.	4dd\
.	.	2.g\	2cc\
4F\	4A/	.	.
=44-	=44-	=44-	=44-
2G\	2.B\	.	2b\
.	.	4g\	.
4G\	.	2d\	4b\
4G\	4B\	.	4dd\
4.C/	2.c\	2.g\	2.ee\
8C/	.	.	.
[y2E\	.	.	.
.	8B\	4g\	4ee\
.	8A\	.	.
=45	=45	=45	=45
!LO:N:xstem:cue	!	!	!
4E\]	2G/	1.g	4b\
4E\	.	.	4b\
4.BB/	2d\	.	4.dd\
8BB/	.	.	8dd\
1C	4e\	.	2cc\
.	4d\	.	.
.	4c\	2.g\	2.ee\
.	4B\	.	.
=46-	=46-	=46-	=46-
0C	2c\	.	.
.	.	4f\	4dd\
.	1G	4e\	4cc\
.	.	4d\	4b\
.	.	2e\	4cc\
.	.	.	4g/
.	1e\	2g\	1cc\
=47	=47	=47	=47
1G	.	00g\	.
.	4d\	.	4b\
.	4c\	.	4a\
[1GGl/	[1dl	.	[1bl
=48-	=48-	=48-	=48-
0GG]	0d\]	.	0b\]
==	==	==	==
*-	*-	*-	*-
!!!system-decoration: g1
!!!RDF**kern: l = terminal long
!!!RDF**kern: > = above
!!!RDF**kern: < = below
!!!AIN: 4 organ
!!!ENC: Filip Voros
!!!END: 2021-12-19
!!!EED: Jędrzej Mróz
!!!EST: 2021-12-23
